X:1
T:Title
%%score ( 1 2 ) { 3 | 4 }
L:1/8
Q:1/4=97
M:4/4
K:C
V:1 treble nm="Grand Piano, Soprano"
V:2 treble 
V:3 treble nm="Choir Pad, A Sinner Saved by Grace"
V:4 bass 
V:1
 [EG][CE][DF][EG]- [EG]4 | G[FB][FG][Ec]- [Ec] [EG]3 | [EG][EG][EG][FA]- [FA]4 | %3
w: By~Albert~Benjamin~Simpson * * * *|||
 G[FB][Ec][Fd]- [Fd]4 | [FG][FG][FG][Ge]- [Ge]4 | z8 | z8 | z8 | z8 | z2 z c- c4- | c z z2 z4 | %11
w: ||||||||
 z2 z c- c2- c/ z/ z | z2 z c- c4 | z2 z A- A4- | A z z2 z4 | z8 | z8 |] %17
w: ||||||
V:2
 x8 | x8 | x8 | x8 | x8 | [Gd][Gc][GB][GB]- [GB]3 [FA]- | [FA] [_Ec]2 [=EG] [Ec]3 [Fd]- | %7
 [Fd]2 [FB][Ec]- [Ec]4- | [Ec][DB]- [DB]/[Ec]/[Fd]- [Fd]4- | [Fd][FB]- [FB]/[FG]/E- EG- G/F/E- | %10
 E G2 [FA]- [FA][FA]- [FA]/[FA]/[Dd]- | [Dd] [Dc]2 F- FFF[FB] | [FG][Ge][Fd]E EEEE | %13
 [CE][B,F][CG]C FFFF- | F [_Ec]2 [=EG]- [EG]2 [Gc][Ge]- | [Ge] [Ec]2 [Fd]- [Fd]3 [Ec]- | %16
 [Ec]6 z2 |] %17
V:3
 CG,G,C- C4 | CG,B,C- C C3 | CCCC- C4 | C[K:bass]G,G,B,- B,4 | B,B,B,[K:treble]C- C4 | %5
 B,CCC- C3 C- | C C2 C C3 B,- | B,2 DC- C4- | C[K:bass]G,- G,/G,/B,- B,B,- B,/B,/B,- | %9
 B,D- D/B,/G,- G,B,- B,/A,/G,- | G,[K:treble] C2 C- CC- C/C/[K:bass]A,- | A, A,2 G,- G,B,CD | %12
 B,B,B,C G,G,G,G, | G,G,G,F,[K:treble] C C2 C- | C C2 C- C2 EC- | C[K:bass] G,2 B,- B,3 G,- | %16
 G,6 z2 |] %17
V:4
 C,C,C,C,- C,4 | .E,2 G,C,- C, C,3 | C,C,C,F,- F,4 | E,D,C,G,,- G,,4 | G,G,G,C,- C,4 | %5
 D,E,E,F,- F,3 F,- | F, ^F,2 G, G,3 G,- | G,2 G,C,- C,4- | C,2 z G,- G,G,- G,/G,/G,- | %9
 G,G,- G,/G,/C,- C,4- | C, E,2 F,- F,F,- F,/F,/^F,- | F, .^F,3 z2 z G, | G,G,G,C, C,C,C,C, | %13
 C,D, .E,2 F, F,2 F,- | F, ^F,2 G,- G,2 G,G,- | G, z z G,,- G,,3 C,- | C,6 z2 |] %17

